X: 41750
T: Valse Pour Alice
R: waltz
M: 3/4
K: Cmajor
"C"E4 G2|"C"E4 A2|"C"E4 G2|"C"E4 B2|"C"E4 c2|"C"B4 A2|"C"G2 E2 G2|"Dm"F6|
"Dm"D2 E2 F2|"Dm"D2 E2 F2|"Dm"D2 E2 F2|"G"G6|
"G"G2 G2 G2|"G"G2 G2 G2|"G"F2 E2 D2|"C"C6||

